img/skills/Express.svg

<svg width="46" height="55" viewBox="0 0 46 55" fill="none" xmlns="http://www.w3.org/2000/svg">
<path d="M23 2L1 15V40.5L23 53L45 40.5V15L23 2Z" fill="#242938" stroke="#1B1F2C" stroke-width="2"/>
<path d="M41 38.3287C40.476 38.5272 39.8974 38.5268 39.3737 38.3276C38.85 38.1285 38.4173 37.7443 38.1576 37.2478C36.5263 34.8058 34.7248 32.4739 32.9934 30.0919L32.2426 29.0911C30.1809 31.8534 28.1192 34.5055 26.2377 37.2579C25.9926 37.7324 25.5834 38.1017 25.0862 38.2969C24.5891 38.4921 24.038 38.4999 23.5355 38.3188L31.2719 27.9402L24.0759 18.5622C24.5939 18.3752 25.1605 18.3726 25.6802 18.5549C26.1999 18.7372 26.6407 19.0933 26.9283 19.563C28.5996 22.0053 30.4513 24.3372 32.2927 26.8093C34.1443 24.3571 35.9758 22.0152 37.6873 19.5931C37.9337 19.1262 38.3432 18.7663 38.8377 18.5818C39.3323 18.3972 39.8775 18.401 40.3695 18.5923L37.5771 22.2954C36.3261 23.9467 35.0951 25.6081 33.7941 27.2195C33.6892 27.3133 33.6052 27.4283 33.5478 27.5567C33.4903 27.6852 33.4606 27.8244 33.4606 27.9651C33.4606 28.1059 33.4903 28.2451 33.5478 28.3735C33.6052 28.502 33.6892 28.617 33.7941 28.7108C36.1861 31.8835 38.5579 35.0661 41 38.3287ZM5 27.8101C5.21024 26.8093 5.3402 25.7183 5.63054 24.6975C7.36196 18.5424 14.4178 15.9801 19.2718 19.7934C22.1142 22.0254 22.8249 25.188 22.6848 28.7509H6.67148C6.4112 35.1163 11.005 38.9595 16.8798 36.9978C17.8328 36.6569 18.6859 36.084 19.3621 35.3309C20.0383 34.5778 20.5163 33.6682 20.7531 32.6841C21.0634 31.6833 21.5638 31.5132 22.5145 31.8034C22.358 33.0218 21.9272 34.1889 21.2546 35.2169C20.5821 36.2448 19.6852 37.1069 18.6314 37.7383C16.8904 38.6905 14.8928 39.0677 12.9245 38.8161C10.9561 38.5644 9.11775 37.6968 7.67228 36.3372C6.24224 34.7293 5.37757 32.6977 5.21024 30.5524C5.21024 30.2122 5.0801 29.8718 5.01008 29.5516C5.00346 28.9711 5.0001 28.3906 5 27.8101ZM6.69146 27.3797H21.1735C21.0834 22.7659 18.171 19.4932 14.2878 19.4633C9.96422 19.4032 6.87164 22.6057 6.68138 27.3597L6.69146 27.3797Z" fill="white"/>
</svg>

<svg width="46" height="55" fill="none" xmlns="http://www.w3.org/2000/svg"><path d="M23 2 1 15v25.5L23 53l22-12.5V15L23 2z" fill="#242938" stroke="#1B1F2C" stroke-width="2"/><path d="M41 38.329a2.291 2.291 0 0 1-2.842-1.081c-1.632-2.442-3.433-4.774-5.165-7.156l-.75-1c-2.062 2.761-4.124 5.413-6.005 8.166a2.202 2.202 0 0 1-2.703 1.06l7.737-10.378-7.196-9.378a2.392 2.392 0 0 1 2.852 1.001c1.672 2.442 3.523 4.774 5.365 7.246 1.851-2.452 3.683-4.794 5.394-7.216a2.15 2.15 0 0 1 2.683-1l-2.793 3.702c-1.25 1.652-2.482 3.313-3.783 4.924a1 1 0 0 0 0 1.492c2.392 3.173 4.764 6.355 7.206 9.618zM5 27.81c.21-1 .34-2.092.63-3.112 1.732-6.156 8.788-8.718 13.642-4.905 2.842 2.232 3.553 5.395 3.413 8.958H6.67c-.26 6.365 4.334 10.208 10.209 8.247a6.095 6.095 0 0 0 3.873-4.314c.31-1 .81-1.17 1.762-.88a8.126 8.126 0 0 1-3.884 5.934 9.407 9.407 0 0 1-10.959-1.4 9.858 9.858 0 0 1-2.462-5.786c0-.34-.13-.68-.2-1-.007-.58-.01-1.161-.01-1.742zm1.691-.43h14.483c-.09-4.614-3.003-7.887-6.886-7.917-4.324-.06-7.416 3.143-7.607 7.897l.01.02z" fill="#fff"/></svg>
